docs/img/icons/rocket-min.svg

<svg width="50" height="50" viewBox="0 0 50 50" fill="none" xmlns="http://www.w3.org/2000/svg">
<g clip-path="url(#clip0_45:737)">
<path d="M26.2365 23.7646C25.8546 23.3828 25.2365 23.3828 24.8546 23.7646C24.4738 24.1455 24.4738 24.7637 24.8546 25.1455C25.2365 25.5264 25.8546 25.5264 26.2365 25.1455C26.6173 24.7637 26.6173 24.1455 26.2365 23.7646Z" fill="white"/>
<path d="M38.6652 11.3347C36.757 9.42658 33.668 9.42648 31.7597 11.3347C29.8565 13.2379 29.8564 16.3355 31.76 18.2403C33.6639 20.1431 36.7615 20.1438 38.6652 18.2401C40.5732 16.3321 40.5736 13.243 38.6652 11.3347ZM37.2842 16.859C36.1423 18.001 34.2835 18.001 33.141 16.8592C31.9989 15.7164 31.9988 13.8576 33.1408 12.7157C34.2857 11.5709 36.1392 11.5707 37.2842 12.7157C38.429 13.8605 38.4292 15.7141 37.2842 16.859Z" fill="white"/>
<path d="M49.7137 0.286044C49.5219 0.0943453 49.2602 -0.00956072 48.9882 0.000693163C48.7674 0.0086033 43.51 0.219931 37.2605 2.42881C32.2527 4.19697 28.0786 6.72851 24.8541 9.95312C24.1316 10.6757 23.4284 11.4419 22.7557 12.2379C19.5674 10.3611 17.0125 10.9496 15.3974 11.814C11.6786 13.8042 9.37671 19.2081 9.37671 23.0733C9.377 23.4682 9.61499 23.8244 9.97983 23.9755C10.1006 24.0255 10.2276 24.0499 10.3534 24.0499C10.6076 24.0499 10.8573 23.9505 11.0441 23.7638C13.0053 21.8026 15.4244 21.9253 16.2146 22.0292L16.5566 22.3712C15.8835 23.9727 15.3413 25.5653 14.9437 27.1142C14.8001 27.6748 14.8486 28.2679 15.062 28.8105C14.1217 29.2438 13.2146 29.88 12.4248 30.6699C9.91099 33.1837 9.40054 39.3101 9.38003 39.5697C9.35757 39.8545 9.46089 40.135 9.66294 40.337C9.84683 40.5208 10.0956 40.6231 10.3534 40.6231C10.379 40.6231 10.4046 40.6221 10.4303 40.62C10.6899 40.5996 16.8164 40.0892 19.3302 37.5754C20.1198 36.7859 20.7559 35.8788 21.1892 34.9388C21.7636 35.1647 22.3548 35.1925 22.8864 35.0563C24.4347 34.6587 26.0271 34.1167 27.6288 33.4436L27.9708 33.7856C28.0746 34.5759 28.1973 36.995 26.2361 38.956C25.9569 39.2353 25.8734 39.6553 26.0245 40.0201C26.1756 40.3851 26.5317 40.623 26.9267 40.623C30.7919 40.623 36.1957 38.3211 38.1859 34.6023C39.0503 32.9874 39.6388 30.4325 37.762 27.2441C38.5576 26.5716 39.3239 25.8685 40.0468 25.1457C43.2714 21.9211 45.8028 17.7469 47.571 12.7395C49.7799 6.48974 49.9912 1.23233 49.9991 1.01163C50.0089 0.740633 49.9054 0.477841 49.7137 0.286044ZM11.5601 20.9728C12.1667 18.037 13.9288 14.8154 16.3194 13.5359C17.9169 12.681 19.6631 12.7648 21.5198 13.7811C19.938 15.8614 18.5629 18.1026 17.4167 20.4693C17.4022 20.4603 17.2264 20.2393 16.8998 20.1657C16.7656 20.1353 14.1817 19.5796 11.5601 20.9728ZM17.9492 36.1943C16.6064 37.537 13.4565 38.2452 11.4656 38.5344C11.7548 36.5434 12.4631 33.3936 13.8058 32.0509C14.5578 31.299 15.4296 30.7289 16.306 30.4078L19.5923 33.6941C19.2712 34.5705 18.7012 35.4423 17.9492 36.1943ZM22.4013 33.1643C22.1187 33.2367 21.7913 33.1304 21.548 32.8874C20.2846 31.6241 19.7904 31.1298 19.6353 30.9749C19.3509 30.6905 18.6535 29.9931 17.1132 28.4527C16.8697 28.2086 16.7634 27.8814 16.8356 27.5993C17.1484 26.3811 17.5575 25.1313 18.0549 23.8695L26.1306 31.9452C24.8686 32.4427 23.619 32.8517 22.4013 33.1643ZM36.4642 33.6807C35.1847 36.0712 31.9632 37.8333 29.0275 38.4399C29.9635 36.6785 30.1698 34.4362 29.8278 33.0765C29.7484 32.7607 29.5424 32.6019 29.5309 32.5832C31.8974 31.4371 34.1385 30.062 36.2189 28.4802C37.2352 30.3371 37.3189 32.0834 36.4642 33.6807ZM38.6659 23.7646C37.7859 24.6445 36.8384 25.4946 35.8495 26.2912C33.4724 28.2052 30.856 29.8265 28.0646 31.1171L18.8829 21.9357C20.1736 19.1441 21.7948 16.5277 23.7087 14.1509C24.506 13.1613 25.356 12.2137 26.2356 11.3342C29.1286 8.44101 32.8624 6.13847 37.3362 4.48106L45.519 12.6639C43.8618 17.1376 41.5593 20.8714 38.6659 23.7646ZM46.2217 10.6042L39.3959 3.77842C43.1147 2.62334 46.35 2.19083 47.9648 2.03536C47.8092 3.65049 47.3766 6.88574 46.2217 10.6042Z" fill="white"/>
<path d="M23.4737 40.3369C23.0921 39.9556 22.4738 39.9558 22.0925 40.3371L19.3308 43.0998C18.9495 43.4813 18.9496 44.0996 19.331 44.4809C19.7125 44.8621 20.3309 44.8621 20.7121 44.4807L23.4739 41.718C23.8551 41.3365 23.855 40.7182 23.4737 40.3369Z" fill="white"/>
<path d="M9.66342 26.5263C9.28217 26.1449 8.66391 26.1449 8.28237 26.5261L5.51968 29.2879C5.13823 29.6691 5.13814 30.2875 5.51938 30.6689C5.90054 31.0502 6.5188 31.0505 6.90044 30.6691L9.66313 27.9074C10.0446 27.5261 10.0447 26.9078 9.66342 26.5263Z" fill="white"/>
<path d="M16.5686 41.7189C16.1875 41.3375 15.569 41.3375 15.1876 41.7188L8.57235 48.333C8.19091 48.7144 8.19091 49.3327 8.57225 49.7141C8.9534 50.0954 9.57186 50.0956 9.9533 49.7142L16.5685 43.0999C16.95 42.7186 16.95 42.1002 16.5686 41.7189Z" fill="white"/>
<path d="M8.75613 41.7189C8.37488 41.3375 7.75642 41.3375 7.37507 41.7188L0.759851 48.333C0.378406 48.7144 0.378406 49.3327 0.759753 49.7141C1.1409 50.0954 1.75936 50.0956 2.14081 49.7142L8.75603 43.0999C9.13747 42.7186 9.13747 42.1002 8.75613 41.7189Z" fill="white"/>
<path d="M8.28154 33.4314C7.90029 33.0502 7.28184 33.0502 6.90049 33.4315L0.286242 40.0467C-0.0951048 40.4282 -0.0951048 41.0464 0.28634 41.4279C0.667687 41.8092 1.28604 41.8092 1.66739 41.4278L8.28164 34.8126C8.66298 34.4311 8.66298 33.8129 8.28154 33.4314Z" fill="white"/>
<path d="M30.3792 19.621C29.9977 19.2396 29.3796 19.2396 28.998 19.621L27.6172 21.0018C27.2358 21.3832 27.2358 22.0015 27.6172 22.383C27.9986 22.7643 28.6169 22.7643 28.9983 22.383L30.3792 21.0021C30.7605 20.6208 30.7605 20.0024 30.3792 19.621Z" fill="white"/>
</g>
<defs>
<clipPath id="clip0_45:737">
<rect width="50" height="50" fill="white"/>
</clipPath>
</defs>
</svg>

<svg width="50" height="50" fill="none" xmlns="http://www.w3.org/2000/svg"><g clip-path="url(#clip0_45:737)" fill="#fff"><path d="M26.236 23.765a.977.977 0 10-1.381 1.38.977.977 0 001.381-1.38zm12.429-12.43a4.88 4.88 0 00-6.905 0 4.89 4.89 0 000 6.905 4.89 4.89 0 006.905 0 4.88 4.88 0 000-6.905zm-1.38 5.524a2.934 2.934 0 01-4.144 0 2.934 2.934 0 010-4.143 2.929 2.929 0 014.143 0 2.928 2.928 0 010 4.143z"/><path d="M49.714.286a.973.973 0 00-.726-.285c-.22.008-5.478.219-11.727 2.428-5.008 1.768-9.182 4.3-12.407 7.524a37.168 37.168 0 00-2.098 2.285c-3.189-1.877-5.744-1.288-7.359-.424-3.718 1.99-6.02 7.394-6.02 11.26a.977.977 0 001.667.69c1.961-1.961 4.38-1.839 5.17-1.735l.343.342a34.332 34.332 0 00-1.613 4.743 2.764 2.764 0 00.118 1.697 9.245 9.245 0 00-2.637 1.859C9.91 33.184 9.4 39.31 9.38 39.57a.976.976 0 001.05 1.05c.26-.02 6.386-.53 8.9-3.045a9.247 9.247 0 001.86-2.636 2.758 2.758 0 001.696.117 34.36 34.36 0 004.743-1.612l.342.342c.104.79.226 3.209-1.735 5.17a.977.977 0 00.69 1.667c3.866 0 9.27-2.302 11.26-6.02.864-1.616 1.453-4.17-.424-7.359a37.22 37.22 0 002.285-2.098c3.224-3.225 5.756-7.4 7.524-12.407 2.209-6.25 2.42-11.507 2.428-11.727a.977.977 0 00-.285-.726zM11.56 20.973c.607-2.936 2.369-6.158 4.76-7.437 1.597-.855 3.343-.771 5.2.245a39.483 39.483 0 00-4.103 6.688c-.015-.009-.19-.23-.517-.303-.134-.03-2.718-.586-5.34.807zm6.39 15.221c-1.344 1.343-4.493 2.051-6.484 2.34.289-1.99.997-5.14 2.34-6.483.752-.752 1.624-1.322 2.5-1.643l3.286 3.286c-.32.877-.89 1.748-1.643 2.5zm4.451-3.03c-.282.073-.61-.034-.853-.277l-1.913-1.912-2.522-2.522c-.243-.244-.35-.572-.277-.854a31.72 31.72 0 011.219-3.73l8.076 8.076a31.697 31.697 0 01-3.73 1.22zm14.063.517c-1.28 2.39-4.5 4.152-7.436 4.759.936-1.761 1.142-4.004.8-5.363-.08-.316-.286-.475-.297-.494a39.487 39.487 0 006.688-4.103c1.016 1.857 1.1 3.603.245 5.2zm2.202-9.916c-.88.88-1.828 1.73-2.816 2.526a37.52 37.52 0 01-7.785 4.826l-9.182-9.181a37.513 37.513 0 014.826-7.785 35.437 35.437 0 012.527-2.817c2.893-2.893 6.626-5.196 11.1-6.853l8.183 8.183c-1.657 4.474-3.96 8.207-6.853 11.1zm7.556-13.16l-6.826-6.827a43.904 43.904 0 018.569-1.743 43.92 43.92 0 01-1.743 8.57z"/><path d="M23.474 40.337a.977.977 0 00-1.381 0L19.33 43.1a.977.977 0 001.381 1.38l2.762-2.762a.977.977 0 000-1.381zM9.663 26.526a.977.977 0 00-1.38 0L5.52 29.288a.977.977 0 101.38 1.381l2.763-2.762a.977.977 0 000-1.38zm6.906 15.193a.977.977 0 00-1.381 0l-6.616 6.614a.977.977 0 101.381 1.381L16.57 43.1a.976.976 0 000-1.381zm-7.813 0a.977.977 0 00-1.38 0L.76 48.333a.977.977 0 101.38 1.381L8.757 43.1a.976.976 0 000-1.381zm-.474-8.288a.977.977 0 00-1.382 0L.286 40.047a.977.977 0 001.381 1.38l6.615-6.614a.977.977 0 000-1.382zm22.098-13.81a.977.977 0 00-1.382 0l-1.38 1.38a.977.977 0 001.38 1.382l1.381-1.38a.977.977 0 000-1.382z"/></g><defs><clipPath id="clip0_45:737"><path fill="#fff" d="M0 0h50v50H0z"/></clipPath></defs></svg>
